X:1
T: City of Savannah
C: R-70
M: C|
Z:
R: hornpipe
K: D
FG| "D"(3ABA FA dfaf| "G"gaba gfed| "A7"cded cdBc| "D"ABGA FFG^G|
    "D"(3ABA FA dfaf| "G"gaba gfed| "A"caec A_B=Bc|1 "D"d2f2 d2:|2 "D"d2f2 d4|]
|:\
"A7"(3ege ce aec'e| "E7"be^ge "A"ace2| (3ege ce aec'e| "E7"be^ge "A"a4|
 "A"(3aba ^ga eaca| (3aba ^ga fada| "G"=g<Beg "D"f<Adf| "A"eABc "D"d4 :|
%
